material/.icons/material/playlist-play.svg

<svg xmlns="http://www.w3.org/2000/svg" viewBox="0 0 24 24"><path d="M19 9H2v2h17V9m0-4H2v2h17V5M2 15h13v-2H2v2m15-2v6l5-3-5-3z"/></svg>

<?xml version="1.0" encoding="UTF-8"?><!DOCTYPE svg PUBLIC "-//W3C//DTD SVG 1.1//EN" "http://www.w3.org/Graphics/SVG/1.1/DTD/svg11.dtd"><svg xmlns="http://www.w3.org/2000/svg" xmlns:xlink="http://www.w3.org/1999/xlink" version="1.1" id="mdi-playlist-play" width="24" height="24" viewBox="0 0 24 24"><path d="M19,9H2V11H19V9M19,5H2V7H19V5M2,15H15V13H2V15M17,13V19L22,16L17,13Z" /></svg>
